packages/core/src/svgs/tokens/branded/T.svg

<svg width="24" height="24" viewBox="0 0 24 24" fill="none" xmlns="http://www.w3.org/2000/svg">
<path d="M22 5.68419H15.1579V7.78945H22V5.68419ZM10.9473 7.78945H8.84212V9.89467H10.9473V7.78945ZM8.84212 18.3158H10.9473V12H8.84212V18.3158ZM13.0526 7.78945V9.89467H15.1579V7.78945H13.0526ZM13.0526 18.3158H15.1579V12H13.0526V18.3158ZM13.0526 5.68419H10.9473V7.78945H13.0526V5.68419ZM2 5.68419V7.78945H8.84212V5.68419H2ZM22 12V9.89467H15.1579V12H22ZM10.9473 9.89467V12H13.0526V9.89467H10.9473ZM2 9.89467V12H8.84212V9.89467H2Z" fill="#7D00FE"/>
</svg>

<svg xmlns="http://www.w3.org/2000/svg" width="24" height="24" fill="none" viewBox="0 0 24 24">
    <path fill="#7D00FE" d="M22 5.684h-6.842V7.79H22zM10.947 7.79H8.842v2.106h2.105zM8.842 18.316h2.105V12H8.842zm4.21-10.527v2.106h2.106V7.789zm0 10.527h2.106V12h-2.105zm0-12.632h-2.105V7.79h2.106zM2 5.684V7.79h6.842V5.684zM22 12V9.895h-6.842V12zM10.947 9.895V12h2.106V9.895zM2 9.895V12h6.842V9.895z"/>
</svg>
